src/images/common/password_hide.svg

<svg width="16" height="16" viewBox="0 0 16 16" fill="none" xmlns="http://www.w3.org/2000/svg">
<path d="M14.1771 2.11832C14.3879 1.93995 14.7034 1.96624 14.8818 2.17704C15.0601 2.38784 15.0339 2.70333 14.8231 2.8817L12.7747 4.61431C13.909 5.48145 14.8014 6.64994 15.3334 8.00001C14.1801 10.9267 11.3334 13 8.00008 13C6.57762 13 5.24377 12.6224 4.09233 11.9621L1.82305 13.8817C1.61225 14.0601 1.29676 14.0338 1.11839 13.823C0.940016 13.6122 0.966307 13.2967 1.17711 13.1183L3.22457 11.3851C2.09071 10.518 1.19865 9.34975 0.666748 8.00001C1.82008 5.07334 4.66675 3.00001 8.00008 3.00001C9.42293 3.00001 10.7571 3.37778 11.9088 4.03844L14.1771 2.11832ZM11.9124 5.34449L10.5804 6.47169C10.8469 6.91964 11.0001 7.44238 11.0001 8.00001C11.0001 9.65334 9.65341 11 8.00008 11C7.26433 11 6.58931 10.7333 6.06667 10.2916L4.96116 11.2273C5.87905 11.7264 6.91374 12 8.00008 12C10.5851 12 12.8776 10.4509 14.0001 8.00001C13.5064 6.92202 12.785 6.01849 11.9124 5.34449ZM8.00008 4.00001C5.42185 4.00001 3.12253 5.5491 2.00008 8.00001C2.49396 9.07841 3.21436 9.98222 4.08654 10.6563L5.41974 9.52833C5.15327 9.08038 5.00008 8.55764 5.00008 8.00001C5.00008 6.34668 6.34675 5.00001 8.00008 5.00001C8.73605 5.00001 9.41125 5.26686 9.93396 5.70881L11.0391 4.77433C10.12 4.27418 9.08474 4.00001 8.00008 4.00001ZM9.80161 7.13078L6.84482 9.63247C7.17116 9.86392 7.56983 10 8.00008 10C9.10408 10 10.0001 9.10401 10.0001 8.00001C10.0001 7.68856 9.92877 7.39367 9.80161 7.13078ZM8.00008 6.00001C6.89608 6.00001 6.00008 6.89601 6.00008 8.00001C6.00008 8.31146 6.07139 8.60635 6.19856 8.86924L9.15492 6.36725C8.82865 6.13598 8.43015 6.00001 8.00008 6.00001Z" fill="#333333"/>
</svg>

<svg width="16" height="16" fill="none" xmlns="http://www.w3.org/2000/svg"><path d="M14.177 2.118a.5.5 0 0 1 .646.764l-2.048 1.732A7.924 7.924 0 0 1 15.333 8c-1.153 2.927-4 5-7.333 5a7.83 7.83 0 0 1-3.908-1.038l-2.269 1.92a.5.5 0 1 1-.646-.764l2.048-1.733A7.925 7.925 0 0 1 .667 8C1.82 5.073 4.667 3 8 3a7.83 7.83 0 0 1 3.909 1.038l2.268-1.92zm-2.265 3.226L10.58 6.472c.267.448.42.97.42 1.528 0 1.653-1.347 3-3 3-.736 0-1.41-.267-1.933-.708l-1.106.935c.918.5 1.953.773 3.04.773 2.584 0 4.877-1.55 6-4a7.047 7.047 0 0 0-2.089-2.656zM8 4C5.422 4 3.123 5.55 2 8a7.05 7.05 0 0 0 2.087 2.656L5.42 9.528A2.98 2.98 0 0 1 5 8c0-1.653 1.347-3 3-3 .736 0 1.411.267 1.934.709l1.105-.935A6.336 6.336 0 0 0 8 4zm1.802 3.13L6.845 9.633A2 2 0 0 0 9.802 7.13zM8 6A2 2 0 0 0 6.2 8.87l2.956-2.503A1.99 1.99 0 0 0 8 6z" fill="#333"/></svg>
